X: 154
T:Trip to Durro
R:Reel
M:C|
L:1/8
Q:1/2=112
K:D
|:D2FD ADFA|defd B2Bc|dBBA dBBA|FADE FEEF|
D2FD ADFA|defd B2Bc|dBBA BcdB|AFEG FDD2:|
|:dcde fefg|afdf gfed|(3Bcd ef gebe|gebe gfef|
dcde fefg|afdf gfed|(3Bcd ef gbag|fdec d2de|
fdec dcde|fded B2Bc|dBBA dBBA|FADE FEEA|
D2FD ADFA|defd B2Bc|dBBA FAdB|AFEG FDD2:|
